X:1
T:Christmas Bells
T:Christmas Bells
T:Sydney Cross
T:Sydney Cross, 1916
T:Public Domain Courtesy of the Cyber Hymnal™
C:Sydney Cross
Z:Public Domain
Z:Courtesy of the Cyber Hymnal™
%%score ( 1 2 ) ( 3 4 )
L:1/8
Q:1/4=110
M:4/4
K:C
V:1 treble 
V:2 treble 
V:3 bass 
V:4 bass 
V:1
 [B,D]2 | [CE]3 D [CE]2 [CG]2 | [FA]2 G4 [EG]2 | [FA]3 G [FA]2 [Fc]2 | [Fd]2 [Ec]4 c2 | %5
w: 1.~I|heard the church bells|ring- ing, I|heard the child- ren|sing- ing, With|
w: 2.~I|heard the mo- ther|say- ing, I|heard the old man|pray- ing, With|
w: 3.~The|storm is gent- ly|dy- ing, The|snow is soft- ly|ly- ing On|
w: 4.~The|cares of day grow|light- er, The|hour of death grows|bright- er; For|
 [ce]3 [Bd] [df]2 [ce]2 | [Bd]2 [Ac]2 [EB]2 [EB]2 | [Ac]3 [^GB] [Bd]2 [Ac]2 | %8
w: hap- py hearts and|voic- es sweet, On|Christ- mas morn that|
w: ag- èd lips and|fee- ble frame, And|low- ly knee— the|
w: shroud- ed hill and|si- lent stream: All|na- ture sleeps— and|
w: Je- sus Christ was|born to- day, Let|young and old u-|
 [FB]2 [DA]2 [B,^G]4 ||"^Refrain" [CG]2 z2 [CG]2 z2 | (AB) (cd) [Ee]4 | [CG]2 z2 [CG]2 z2 | %12
w: song so meet.||||
w: words the same.|Ring, ring,|mer- * ry * bells,|Ring, ring,|
w: this her dream.||||
w: nite and say,||||
 [Af]2 [Ae]2 [Bd]4 | c2 AA F2 D2 | G2 E2 C4 | [Ce]2 [Dd][Dd] [Ec]2!<(! [FB]2 | %16
w: ||||
w: ring, ring, ring;|This is the song the|church bells ring,|This is the song the|
w: ||||
w: ||||
 [Ec]2!<)!"^molto rall." [DEB]2 ([CEA]2 [DFG]2) | (c4 B2) G2 | A6 E2 | [CF]4 (E2 D2) | [G,C]6 |] %21
w: |||||
w: an- gels sing, *|“Peace * on|earth, good-|will toward *|men.”|
w: |||||
w: |||||
V:2
 x2 | x3 D x4 | x2 G4 x2 | x3 G x4 | x6 c2 | x8 | x8 | x8 | x8 || x8 | F2 F2 x4 | x8 | x8 | C6 x2 | %14
 B,4 C4 | x8 | x8 | [EG]8 | [CE]8 | x4 [G,B,]4 | x6 |] %21
V:3
 [G,,G,]2 | [C,G,]3 [B,,G,] [C,G,]2 [E,G,]2 | [F,C]2 [E,C]4 [C,C]2 | [F,C]3 [E,C] [F,C]2 [A,C]2 | %4
 [G,B,]2 [C,C]4 z2 | [CE]3 [B,D] [DF]2 [CE]2 | [B,D]2 [A,C]2 [E,B,]2 z2 | A,,4 C,4 | D,4 E,4 || %9
 [E,C]2 z2 [E,C]2 z2 | [D,A,]2 G,2 [C,G,]4 | [E,C]2 z2 [E,C]2 z2 | [D,D]2 [E,D]2 [G,G]4 | z4 D,4 | %14
 [C,-D,F,G,-]4 [C,D,E,F,G,]4 | [A,,E,]2 [B,,^G,][B,,G,] [C,A,]2 [D,D]2 | %16
 [E,A,]2 [^G,B,]2 ([A,C]2 B,2) | (C4 B,2) G,2 | A,6 E,2 | [D,,A,]4 (G,2 F,2) | [C,,C,E,]6 |] %21
V:4
 x2 | x8 | x8 | x8 | x8 | x8 | x8 | x8 | x8 || x8 | x2 G,2 x4 | x8 | x8 | [C,-F,A,]8 | x8 | x8 | %16
 x6 B,2 | C,8 | C,8 | x4 G,,4 | x6 |] %21

